X: 1126
T: The Hills of Kerry (A57)
N: heptatonic
N: page A57
M: 3/4
L: 1/8
K: G
d2|"G"d2 ^c2 d2|"C"e4 d2|"G"G6-|G4 AB|"C"c4E2|"D"F4E2|"G"D6-|
D4 G2|"C"G4 A2|"G"B4 c2|"G"d4 g2|"G"d4 c2|"A7"B2A2G2|"C"c2c2B2|"D"A6-|A4 d2|
"G"d3^cd2|"C"e4d2|"G"G6-|G4 AB|"C" c2c2E2|"D"F4E2|"G"D6-|D4F2|
"Em"G4A2|"G"B4c2|"G"d4g2|"D7"d4c2|B2A2G2|"D"A3GF2|"G"G6-|G6|
